Sources/FrostedUI/Resources/Icons.xcassets/lockFilled20.imageset/lock-filled-20.svg

<svg width="20" height="20" viewBox="0 0 20 20" fill="none" xmlns="http://www.w3.org/2000/svg" data-fui-icon="true">
  <path
    d="M10.25 0C13.5637 0 16.25 2.68629 16.25 6V8.21387C17.5639 8.70135 18.5 9.96678 18.5 11.4502V16.5498C18.5 18.4552 16.9552 20 15.0498 20H4.9502C3.04481 20 1.5 18.4552 1.5 16.5498V11.4502C1.5 9.96678 2.43614 8.70135 3.75 8.21387V6C3.75 2.68629 6.43629 0 9.75 0H10.25ZM9.75 2C7.54086 2 5.75 3.79086 5.75 6V8H14.25V6C14.25 3.79086 12.4591 2 10.25 2H9.75Z"
    fill="currentColor"
  />
</svg>

<svg xmlns="http://www.w3.org/2000/svg" width="20" height="20" fill="none" data-fui-icon="true" viewBox="0 0 20 20"><path fill="currentColor" d="M10.25 0a6 6 0 0 1 6 6v2.214a3.45 3.45 0 0 1 2.25 3.236v5.1A3.45 3.45 0 0 1 15.05 20H4.95a3.45 3.45 0 0 1-3.45-3.45v-5.1c0-1.483.936-2.749 2.25-3.236V6a6 6 0 0 1 6-6zm-.5 2a4 4 0 0 0-4 4v2h8.5V6a4 4 0 0 0-4-4z"/></svg>
